X: 331
T: 1.er La Marquise
T: la Marquise
B: Robert Landrin "Potpourri fran\,cois des contre-danse ancienne tel quil se danse chez la Reine ..." 1760 p.33 #1 dance 11 #1
S: http://memory.loc.gov/cgi-bin/query/D?musdibib:2:./temp/~ammem_EbRS:
Z: 2014 John Chambers <jc:trillian.mit.edu>
M: 2/2
L: 1/8
K: D
% - - - - - - - - - - - - - - - - - - - - - - - - -
D2F2 |\
A2F2 D2F2 | A4 D2F2 | E2G2 F2E2 | !+!F2D2 D2F2 |\
A2F2 D2F2 | A4 D2F2 | E2G2 F2!+!E2 | D4 :|
|: "2.F."d2A2 |\
!+!B2A2 d2A2 | !+!B2A2 d2A2 | B2A2 G2F2 | E4 d2A2 |\
!+!B2A2 d2A2 | !+!B2A2 d2A2 | B2A2 G2F2 | E4 F2B2 |
^A2B2 c2d2 | !+!c4 !+!f4 | edcB dcB^A | B4 F2B2 |\
^A2B2 c2d2 | c4 f4 | edcB dcB^A | B4 A2dc |
B2e2 f2g2 | c4 a4 | gfed A2!+!c2 | d4 A2dc |\
B2e2 f2g2 | c4 a4 | gfed A2!+!c2 | d4 :|
% - - - - - - - - - - - - - - - - - - - - - - - - -

%%sep 1 1 500
%%sep 1 1 500
